app/dist/common/images/nvr.svg

<svg height="18" width="18" xmlns="http://www.w3.org/2000/svg"><path d="m0 0h18v18h-18z" fill="#860038"/><g fill="#fff"><path d="m3 6c-.568 0-1 .492-1 1.098v3.804c0 .606.432 1.098 1 1.098h12c.568 0 1-.492 1-1.098v-3.804c0-.606-.432-1.098-1-1.098zm12 .353h-12v5.294h12z" fill-rule="evenodd"/><path d="m4.844 7h-.954v.182l.107.181v3.271l-.107.182v.182h1.216v-.182l-.106-.182v-1.882c.268.353.742 1.183 1.124 1.684.381.502.888.581 1.078.558v-3.63l.093-.182v-.182h-1.191v.182l.136.181v1.722zm3.758 0h-1.216v.182c.143.042.238.265.268.35.157.46.536 1.578.799 2.363.262.784.78 1.062 1.007 1.103l1.372-3.816v-.182h-1.064v.25c.147 0 .075.192.038.293l-.002.004-.597 1.779-.68-1.963.076-.181v-.182z"/><path d="m10.915 7h1.953c.329 0 .83.273.836 1.034.007.762-.456.979-.689.992.26.44.94 1.432 1.584 1.972h-1.042c-.104-.003-.388-.1-.69-.544-.233-.343-.517-.866-.716-1.233l-.151-.275v1.688l.13.182v.182h-1.223v-.182l.092-.182v-3.286l-.085-.166v-.182zm1.085.556s.797-.065.797.463c0 .568-.527.604-.797.616z" fill-rule="evenodd"/></g></svg>

<!-- by TradingView --><svg width="18" height="18" xmlns="http://www.w3.org/2000/svg"><path fill="#860038" d="M0 0h18v18H0z"/><path fill-rule="evenodd" d="M3 6c-.568 0-1 .492-1 1.098v3.804C2 11.508 2.432 12 3 12h12c.568 0 1-.492 1-1.098V7.098C16 6.492 15.568 6 15 6H3zm12 .353H3v5.294h12V6.353z" fill="#fff"/><path d="M4.844 7H3.89v.182l.107.181v3.271l-.107.182v.182h1.216v-.182L5 10.634V8.752c.268.353.742 1.183 1.124 1.684.381.502.888.581 1.078.558v-3.63l.093-.182V7H6.104v.182l.136.181v1.722L4.844 7zM8.602 7H7.386v.182c.143.042.238.265.268.35.157.46.536 1.578.799 2.363.262.784.78 1.062 1.007 1.103l1.372-3.816V7H9.768v.25c.147 0 .075.192.038.293l-.002.004-.597 1.779-.68-1.963.076-.181V7z" fill="#fff"/><path fill-rule="evenodd" d="M10.915 7h1.953c.329 0 .83.273.836 1.034.007.762-.456.979-.689.992.26.44.94 1.432 1.584 1.972h-1.042c-.104-.003-.388-.1-.69-.544-.233-.343-.517-.866-.716-1.233L12 8.946v1.688l.13.182v.182h-1.223v-.182l.092-.182V7.348l-.085-.166V7zM12 7.556s.797-.065.797.463c0 .568-.527.604-.797.616V7.556z" fill="#fff"/></svg>
